svgs/sharp-light/print-slash.svg

<svg xmlns="http://www.w3.org/2000/svg" viewBox="0 0 640 512"><!--! Font Awesome Pro 6.6.0 by @fontawesome - https://fontawesome.com License - https://fontawesome.com/license (Commercial License) Copyright 2024 Fonticons, Inc. --><path d="M512 489.1l-32-25.3 0 16.1-320 0 0-128 178.3 0-40.5-32L160 320l-32 0 0 32 0 32-32 0 0-160 80.2 0-40.5-32L96 192l-32 0 0 32 0 160 0 32 32 0 32 0 0 64 0 32 32 0 320 0 32 0 0-22.9zM160 48.1L160 32l274.7 0L480 77.3l0 82.7 32 0 0-96L448 0 160 0 128 0l0 22.9 32 25.3zM342.2 192l40.5 32L544 224l0 64 0 63.3 32 25.3L576 224l0-32-32 0-201.8 0zM512 256l-32 0 0 32 32 0 0-32zM32.5 10L19.9 .1 .1 25.3l12.6 9.9L607.8 502.2l12.6 9.9 19.8-25.2-12.6-9.9L32.5 10z"/></svg>

<svg xmlns="http://www.w3.org/2000/svg" viewBox="0 0 640 512"><!--! Font Awesome Pro 6.4.2 by @fontawesome - https://fontawesome.com License - https://fontawesome.com/license (Commercial License) Copyright 2023 Fonticons, Inc. --><path d="M512 489.1l-32-25.3V480H160V352H338.3l-40.5-32H160 128v32 32H96V224h80.2l-40.5-32H96 64v32V384v32H96h32v64 32h32H480h32V489.1zM160 48.1V32H434.7L480 77.3V160h32V64L448 0H160 128V22.9l32 25.3zM342.2 192l40.5 32H544v64 63.3l32 25.3V224 192H544 342.2zM512 256H480v32h32V256zM40.4 18L27.8 8.1 8.1 33.4l12.6 9.8L599.8 494.3l12.6 9.8 19.7-25.2L619.5 469 40.4 18z"/></svg>
